curriculum/images/exercise-icons/rainbow-ball.svg

<svg width="82" height="82" viewBox="0 0 82 82" fill="none" xmlns="http://www.w3.org/2000/svg">
<path d="M1 41C1 51.6087 5.21427 61.7828 12.7157 69.2843C20.2172 76.7857 30.3913 81 41 81C51.6087 81 61.7828 76.7857 69.2843 69.2843C76.7857 61.7828 81 51.6087 81 41C81 30.3913 76.7857 20.2172 69.2843 12.7157C61.7828 5.21427 51.6087 1 41 1C30.3913 1 20.2172 5.21427 12.7157 12.7157C5.21427 20.2172 1 30.3913 1 41Z" fill="#DAEDF7" stroke="#DAEDF7"/>
<path d="M22 71.5C22 71.8283 22.4785 72.1534 23.4082 72.4567C24.3379 72.76 25.7006 73.0356 27.4185 73.2678C29.1364 73.4999 31.1758 73.6841 33.4204 73.8097C35.6649 73.9353 38.0705 74 40.5 74C42.9295 74 45.3351 73.9353 47.5796 73.8097C49.8242 73.6841 51.8636 73.4999 53.5815 73.2678C55.2994 73.0356 56.6621 72.76 57.5918 72.4567C58.5215 72.1534 59 71.8283 59 71.5C59 71.1717 58.5215 70.8466 57.5918 70.5433C56.6621 70.24 55.2994 69.9644 53.5815 69.7322C51.8636 69.5001 49.8242 69.3159 47.5796 69.1903C45.3351 69.0647 42.9295 69 40.5 69C38.0705 69 35.6649 69.0647 33.4204 69.1903C31.1758 69.3159 29.1364 69.5001 27.4185 69.7322C25.7006 69.9644 24.3379 70.24 23.4082 70.5433C22.4785 70.8466 22 71.1717 22 71.5Z" fill="#45413C"/>
<path d="M40.4994 14C37.0294 13.9985 33.5962 14.7081 30.4135 16.0844C27.2309 17.4607 24.367 19.4744 22 22H59C56.633 19.474 53.7689 17.4602 50.586 16.0838C47.4031 14.7075 43.9697 13.9982 40.4994 14Z" fill="#FF6242"/>
<path d="M17 30H29.3802C30.6882 28.4006 32.3716 27.1049 34.2999 26.2131C36.2282 25.3213 38.3497 24.8575 40.5 24.8575C42.6503 24.8575 44.7718 25.3213 46.7001 26.2131C48.6284 27.1049 50.3118 28.4006 51.6198 30H64C62.8421 27.0289 61.0554 24.3078 58.7472 22H22.2528C19.9446 24.3078 18.1579 27.0289 17 30Z" fill="#FF8A14"/>
<path d="M30 30H17.5153C16.5101 32.8841 15.9972 35.9304 16 39H27.0691C27.0664 35.7436 28.0972 32.5783 30 30Z" fill="#FFE500"/>
<path d="M54.9299 39H66C66.0027 35.9304 65.4898 32.8842 64.4846 30H52C53.9025 32.5785 54.9329 35.7438 54.9299 39Z" fill="#FFE500"/>
<path d="M52 47H64.4858C65.4908 44.4363 66.0033 41.7285 66 39H54.9299C54.9331 41.8945 53.9026 44.7081 52 47Z" fill="#6DD627"/>
<path d="M27.0691 39H16C15.9966 41.7285 16.5091 44.4363 17.514 47H30C28.097 44.7083 27.0662 41.8946 27.0691 39Z" fill="#6DD627"/>
<path d="M40.4994 52.7857C38.3491 52.7855 36.2278 52.2635 34.2996 51.2602C32.3714 50.2569 30.6882 48.7992 29.3802 47H17C18.1576 50.3426 19.9443 53.4039 22.2528 56H58.7472C61.0557 53.4039 62.8424 50.3426 64 47H51.6198C50.3118 48.7995 48.6284 50.2574 46.7 51.2607C44.7715 52.2641 42.6499 52.7859 40.4994 52.7857Z" fill="#00B8F0"/>
<path d="M40.4994 64C43.9697 64.0018 47.4031 63.2925 50.586 61.9162C53.7689 60.5398 56.633 58.526 59 56H22C24.367 58.5256 27.2309 60.5393 30.4135 61.9156C33.5962 63.2919 37.0294 64.0015 40.4994 64Z" fill="#9F5AE5"/>
<path d="M40.4963 14C37.0271 13.9959 33.5942 14.7042 30.4119 16.0806C27.2296 17.457 24.3661 19.472 22 22H28.8938C32.5463 20.3763 36.5011 19.5371 40.5006 19.5371C44.5002 19.5371 48.4549 20.3763 52.1074 22H59C56.633 19.4712 53.7683 17.4557 50.5846 16.0792C47.401 14.7028 43.9667 13.995 40.4963 14Z" fill="#FF6242"/>
<path d="M29 22H22.2221C19.9256 24.3078 18.1493 27.0291 17 30H18.2448C21.0711 26.5368 24.7667 23.788 29 22Z" fill="#FFAA54"/>
<path d="M62.7543 30H64C62.8499 27.0291 61.0723 24.3078 58.7742 22H52C56.2331 23.7893 59.9282 26.538 62.7543 30Z" fill="#FFAA54"/>
<path d="M65 34C64.7825 32.6417 64.4935 31.3051 64.1351 30H63C63.7375 31.2689 64.4059 32.6056 65 34Z" fill="#FFF48C"/>
<path d="M16 34C16.5941 32.6056 17.2625 31.2689 18 30H16.8649C16.5065 31.3051 16.2175 32.6417 16 34Z" fill="#FFF48C"/>
<path d="M40.5 64C35.6544 64 30.9175 62.5338 26.8885 59.7867C22.8595 57.0397 19.7193 53.1352 17.865 48.5671C16.0106 43.9989 15.5254 38.9723 16.4708 34.1228C17.4161 29.2732 19.7495 24.8187 23.1759 21.3223C26.6023 17.826 30.9678 15.445 35.7203 14.4804C40.4728 13.5157 45.399 14.0108 49.8757 15.903C54.3525 17.7952 58.1789 20.9995 60.871 25.1108C63.5631 29.222 65 34.0555 65 39C64.9927 45.6281 62.4092 51.9827 57.8161 56.6695C53.223 61.3563 46.9956 63.9926 40.5 64ZM40.5 24.9756C37.7817 24.9756 35.1245 25.7981 32.8643 27.3392C30.6041 28.8802 28.8425 31.0705 27.8023 33.6331C26.7621 36.1957 26.4899 39.0156 27.0202 41.736C27.5505 44.4565 28.8595 46.9554 30.7816 48.9167C32.7037 50.8781 35.1527 52.2138 37.8187 52.7549C40.4848 53.2961 43.2482 53.0183 45.7596 51.9569C48.2709 50.8954 50.4174 49.0978 51.9276 46.7915C53.4378 44.4852 54.2439 41.7738 54.2439 39C54.2395 35.2819 52.79 31.7174 50.2135 29.0883C47.637 26.4592 44.1438 24.9801 40.5 24.9756Z" stroke="#45413C" stroke-linecap="round" stroke-linejoin="round"/>
</svg>

<svg xmlns="http://www.w3.org/2000/svg" width="82" height="82" fill="none" viewBox="0 0 82 82"><path fill="#daedf7" stroke="#daedf7" d="M1 41a40 40 0 1 0 80 0 40 40 0 0 0-80 0Z"/><path fill="#45413c" d="M22 71.5c0 .328.479.653 1.408.957.93.303 2.293.579 4.01.81 1.718.233 3.758.417 6.002.543 2.245.125 4.65.19 7.08.19s4.835-.065 7.08-.19c2.244-.126 4.284-.31 6.002-.542s3.08-.508 4.01-.811S59 71.828 59 71.5s-.478-.653-1.408-.957-2.293-.579-4.01-.81c-1.718-.233-3.758-.417-6.002-.543-2.245-.125-4.65-.19-7.08-.19s-4.835.065-7.08.19c-2.244.126-4.284.31-6.001.542s-3.081.508-4.01.811c-.93.304-1.409.629-1.409.957"/><path fill="#ff6242" d="M40.5 14a25.4 25.4 0 0 0-10.086 2.084A25.3 25.3 0 0 0 22 22h37a25.3 25.3 0 0 0-8.414-5.916A25.4 25.4 0 0 0 40.499 14"/><path fill="#ff8a14" d="M17 30h12.38a13.86 13.86 0 0 1 4.92-3.787 14.8 14.8 0 0 1 6.2-1.355c2.15 0 4.272.463 6.2 1.355A13.86 13.86 0 0 1 51.62 30H64a23.3 23.3 0 0 0-5.253-8H22.253A23.3 23.3 0 0 0 17 30"/><path fill="#ffe500" d="M30 30H17.515A27.3 27.3 0 0 0 16 39h11.07c-.004-3.256 1.027-6.422 2.93-9M54.93 39H66c.003-3.07-.51-6.116-1.515-9H52c1.903 2.578 2.933 5.744 2.93 9"/><path fill="#6dd627" d="M52 47h12.486A21.8 21.8 0 0 0 66 39H54.93c.003 2.895-1.027 5.708-2.93 8M27.07 39H16a21.8 21.8 0 0 0 1.514 8H30c-1.903-2.292-2.934-5.105-2.93-8"/><path fill="#00b8f0" d="M40.5 52.786c-2.15 0-4.272-.523-6.2-1.526A14.2 14.2 0 0 1 29.38 47H17a26.7 26.7 0 0 0 5.253 9h36.494A26.7 26.7 0 0 0 64 47H51.62a14.2 14.2 0 0 1-4.92 4.26 13.4 13.4 0 0 1-6.2 1.526"/><path fill="#9f5ae5" d="M40.5 64c3.47.002 6.903-.708 10.086-2.084A25.3 25.3 0 0 0 59 56H22a25.3 25.3 0 0 0 8.414 5.916A25.4 25.4 0 0 0 40.499 64"/><path fill="#ff6242" d="M40.496 14a25.3 25.3 0 0 0-10.084 2.08A25.25 25.25 0 0 0 22 22h6.894a28.58 28.58 0 0 1 23.213 0H59a25.25 25.25 0 0 0-8.415-5.92A25.3 25.3 0 0 0 40.496 14"/><path fill="#ffaa54" d="M29 22h-6.778A23.2 23.2 0 0 0 17 30h1.245c2.826-3.463 6.522-6.212 10.755-8M62.754 30H64a23.2 23.2 0 0 0-5.226-8H52c4.233 1.79 7.928 4.538 10.754 8"/><path fill="#fff48c" d="M65 34a38 38 0 0 0-.865-4H63a36 36 0 0 1 2 4M16 34a36 36 0 0 1 2-4h-1.135A38 38 0 0 0 16 34"/><path stroke="#45413c" stroke-linecap="round" stroke-linejoin="round" d="M40.5 64a24.15 24.15 0 0 1-13.611-4.213 24.9 24.9 0 0 1-9.024-11.22 25.47 25.47 0 0 1-1.394-14.444 25.16 25.16 0 0 1 6.705-12.8A24.35 24.35 0 0 1 35.72 14.48a24.04 24.04 0 0 1 14.156 1.423 24.6 24.6 0 0 1 10.995 9.208A25.36 25.36 0 0 1 65 39c-.007 6.628-2.59 12.983-7.184 17.67-4.593 4.686-10.82 7.323-17.316 7.33m0-39.024c-2.718 0-5.376.822-7.636 2.363a13.97 13.97 0 0 0-5.062 6.294 14.3 14.3 0 0 0-.782 8.103c.53 2.72 1.84 5.22 3.762 7.18a13.66 13.66 0 0 0 7.037 3.839c2.666.541 5.43.263 7.94-.798a13.8 13.8 0 0 0 6.169-5.166A14.23 14.23 0 0 0 54.244 39a14.2 14.2 0 0 0-4.03-9.912 13.62 13.62 0 0 0-9.714-4.112"/></svg>
